!!!!SEGMENT: pl-kk--kk-i-350--007_anonim--gaudeamus-omnes.krn
!!!cenid: 17xx:2067
!!!COM: Anonim
!!!COM-rismid: pe30004985
!!!CDT:
!!!CNT:
!!!OTL: Gaudeamus omnes
!!!PDT:
!!!AGN: Sacred
!!!SMS-siglum: PL-Kk
!!!SMS-shelfmark: Kk.I.350
!!!SMS-shelfwork: 007 W
!!!SMS-variant:
!!!SMS-altvar:
!!!NIFC-rismid: 1001145766
!!!URL-scan: http://repozytorium.nifc.pl/skany/pl-kk-nut--i-350
!!!ONB-nifc: UWAGA: utwory w zbiorze: 1. Gaudeamus, 2. Alleluia assumpta est Maria, 3. Surge propera, 4. Gaudeamus, 5. Propter veritatem, 6. Quae est ista, 7. Gaudeamus omnes, 8. Alleluia assumpta est Maria, 9. Nigra sum
**kern	**text	**dynam	**kern	**text	**dynam	**kern	**text	**dynam	**kern	**text	**dynam
*part4	*part4	*part4	*part3	*part3	*part3	*part2	*part2	*part2	*part1	*part1	*part1
*staff4	*staff4	*	*staff3	*staff3	*	*staff2	*staff2	*	*staff1	*staff1	*
*I"Baſso E ripieno	*	*	*I"Tenore	*	*	*I"Alto	*	*	*I"Canto	*	*
*I'B rip	*	*	*I'T	*	*	*I'A	*	*	*I'S	*	*
*clefF4	*	*	*clefC4	*	*	*clefC3	*	*	*clefC1	*	*
*k[]	*	*	*k[]	*	*	*k[]	*	*	*k[]	*	*
*M2/2	*	*	*M2/2	*	*	*M2/2	*	*	*M2/2	*	*
*met(c|)	*	*	*met(c|)	*	*	*met(c|)	*	*	*met(c|)	*	*
=1	=1	=1	=1	=1	=1	=1	=1	=1	=1	=1	=1
*	*	*	*	*	*	*2\right	*	*	*2\right	*	*
4C\	Gau-	.	2G/	Gau-	.	2e\	Gau-	.	2cc\	Gau-	.
4E\	.	.	.	.	.	.	.	.	.	.	.
*	*	*	*2\right	*	*	*	*	*	*	*	*
4G\	.	.	2c\	-de-	.	2c\	-de-	.	2g\	-de-	.
4E\	-de-	.	.	.	.	.	.	.	.	.	.
=2	=2	=2	=2	=2	=2	=2	=2	=2	=2	=2	=2
4C/	-a-	.	2c\	-a-	.	2g\	-a-	.	2ee\	-a-	.
4E/	.	.	.	.	.	.	.	.	.	.	.
4C/	.	.	4G\	.	.	4e\	.	.	4cc\	.	.
4C/	-mus	.	4c\	-mus	.	4g\	-mus	.	4ee\	-mus	.
=3	=3	=3	=3	=3	=3	=3	=3	=3	=3	=3	=3
*2\right	*	*	*	*	*	*	*	*	*	*	*
2G\	om-	.	4B\	om-	.	4f\	om-	.	4dd\	om-	.
.	.	.	4c\	.	.	4e\	.	.	4cc\	.	.
4G\	-nes	.	4B\	-nes	.	4f\	-nes	.	4dd\	-nes	.
4G\	in	.	4G/	in	.	4d\	in	.	4b\	in	.
=4	=4	=4	=4	=4	=4	=4	=4	=4	=4	=4	=4
4.E\	Do-	.	4.G/	Do-	.	4.e\	Do-	.	4.cc\	Do-	.
8D\	-mi-	.	8G/	-mi-	.	8f\	-mi-	.	8dd\	-mi-	.
2C/	-no	.	2c\	-no	.	2g\	-no	.	2ee\	-no	.
=5	=5	=5	=5	=5	=5	=5	=5	=5	=5	=5	=5
2GG/	Di-	.	4d\	Di-	.	(4d\	Di-	.	4b\	Di-	.
.	.	.	4B\	.	.	4f\)	.	.	4dd\	.	.
2C/	-em	.	2c\	-em	.	(4e\	-em	.	4cc\	-em	.
.	.	.	.	.	.	4g\)	.	.	4ee\	.	.
=6	=6	=6	=6	=6	=6	=6	=6	=6	=6	=6	=6
4BB/	fes-	.	4c\	fes-	.	4g\	fes-	.	4ee\	fes-	.
4GG/	.	.	4B\	.	.	4f\	.	.	4dd\	.	.
2C/	-tum	.	2G/	-tum	.	2e\	-tum	.	2cc\	-tum	.
!LO:LB:g=original	!	!	!LO:LB:g=original	!	!	!LO:LB:g=original	!	!	!LO:LB:g=original	!	!
=7	=7	=7	=7	=7	=7	=7	=7	=7	=7	=7	=7
2.F\	ce-	.	2c\	ce-	.	4a\	ce-	.	4ff\	ce-	.
.	.	.	.	.	.	4g\	.	.	4ee\	.	.
.	.	.	4B\	.	.	4f\	.	.	4dd\	.	.
4F#X\	-le-	.	4c\	-le-	.	4e\	-le-	.	4cc\	-le-	.
=8	=8	=8	=8	=8	=8	=8	=8	=8	=8	=8	=8
2G\	-bran-	.	2G/	-bran-	.	2e\	-bran-	.	2cc\	-bran-	.
2GG/	-tes	.	2G/	-tes	.	2d\	-tes	.	2b\	-tes	.
=9	=9	=9	=9	=9	=9	=9	=9	=9	=9	=9	=9
!	!	!LO:DY:a:t=pia	!	!	!LO:DY:rj:a:t=p&colon;	!	!	!LO:DY:rj:a:t=p&colon;	!	!	!LO:DY:rj:a:t=p&colon;
4C\	Gau-	p	2G/	Gau-	p	2e\	Gau-	p	2cc\	Gau-	p
4E\	.	.	.	.	.	.	.	.	.	.	.
4G\	.	.	2c\	-de-	.	2c\	-de-	.	2g\	-de-	.
4E\	-de-	.	.	.	.	.	.	.	.	.	.
=10	=10	=10	=10	=10	=10	=10	=10	=10	=10	=10	=10
4C/	-a-	.	2c\	-a-	.	2g\	-a-	.	2ee\	-a-	.
4E/	.	.	.	.	.	.	.	.	.	.	.
4C/	.	.	4G\	.	.	4e\	.	.	4cc\	.	.
4C/	-mus	.	4c\	-mus	.	4g\	-mus	.	4ee\	-mus	.
=11	=11	=11	=11	=11	=11	=11	=11	=11	=11	=11	=11
2G\	om-	.	4B\	om-	.	4f\	om-	.	4dd\	om-	.
.	.	.	4c\	.	.	4e\	.	.	4dd\	.	.
4G\	-nes	.	4B\	-nes	.	4f\	-nes	.	4dd\	-nes	.
4G\	in	.	4G/	in	.	4d\	in	.	4b\	in	.
=12	=12	=12	=12	=12	=12	=12	=12	=12	=12	=12	=12
4.E\	Do-	.	4.G/	Do-	.	4.e\	Do-	.	4.cc\	Do-	.
8D\	-mi-	.	8G/	-mi-	.	8f\	-mi-	.	8dd\	-mi-	.
2C/	-no	.	2c\	-no	.	2g\	-no	.	2ee\	-no	.
=13	=13	=13	=13	=13	=13	=13	=13	=13	=13	=13	=13
2GG/	Di-	.	4d\	Di-	.	4d\	Di-	.	4b\	Di-	.
.	.	.	4B\	.	.	4f\	.	.	4dd\	.	.
2C/	-em	.	2c\	-em	.	4e\	-em	.	4cc\	-em	.
.	.	.	.	.	.	4g\	.	.	4ee\	.	.
!LO:LB:g=original	!	!	!LO:LB:g=original	!	!	!LO:LB:g=original	!	!	!LO:LB:g=original	!	!
=14	=14	=14	=14	=14	=14	=14	=14	=14	=14	=14	=14
4BB/	fes-	.	4c\	fes-	.	4g\	fes-	.	4ee\	fes-	.
4GG/	.	.	4B\	.	.	4f\	.	.	4dd\	.	.
2C/	-tum	.	2G/	-tum	.	2e\	-tum	.	2cc\	-tum	.
=15	=15	=15	=15	=15	=15	=15	=15	=15	=15	=15	=15
2.F\	ce-	.	2c\	ce-	.	4a\	ce-	.	4ff\	ce-	.
.	.	.	.	.	.	4g\	.	.	4ee\	.	.
.	.	.	4B\	.	.	4f\	.	.	4dd\	.	.
4F#X\	-le-	.	4c\	-le-	.	4e\	-le-	.	4cc\	-le-	.
=16	=16	=16	=16	=16	=16	=16	=16	=16	=16	=16	=16
2G\	-bran-	.	2G/	-bran-	.	2e\	-bran-	.	2cc\	-bran-	.
2GG/	-tes,	.	2G/	-tes	.	2d\	-tes,	.	2b\	-tes	.
=17	=17	=17	=17	=17	=17	=17	=17	=17	=17	=17	=17
!	!	!LO:DY:rj:a	!	!	!LO:DY:rj:a:t=fo	!	!	!	!	!	!LO:DY:rj:a:t=fo
4G\	sub	f	2B\	sub	f	2d\	sub	.	2g/	sub	f
4B\	.	.	.	.	.	.	.	.	.	.	.
4d\	ho-	.	2d\	ho-	.	2f\	ho-	.	2g/	ho-	.
4B\	.	.	.	.	.	.	.	.	.	.	.
=18	=18	=18	=18	=18	=18	=18	=18	=18	=18	=18	=18
4c\	-no-	.	2c\	-no-	.	2e\	-no-	.	2g/	-no-	.
4G\	-re	.	.	.	.	.	.	.	.	.	.
4E\	.	.	4c\	-re	.	4g\	-re	.	4g/	-re	.
4D\	be-	.	4B\	be-	.	4f\	be-	.	4g/	be-	.
=19	=19	=19	=19	=19	=19	=19	=19	=19	=19	=19	=19
4C/	-a-	.	2G/	-a-	.	4e\	-a-	.	4cc\	-a-	.
4D/	.	.	.	.	.	4f\	.	.	4b\	.	.
4E/	-ta	.	4G/	-ta	.	4g\	-ta	.	4cc\	-ta	.
4D/	Ma-	.	4G/	Ma-	.	4f\	Ma-	.	4b\	Ma-	.
=20	=20	=20	=20	=20	=20	=20	=20	=20	=20	=20	=20
4C/	-ri-	.	2.G/	-ri-	.	4e\	-ri-	.	2.cc\	-ri-	.
4D/	.	.	.	.	.	4f\	.	.	.	.	.
4E/	.	.	.	.	.	4g\	.	.	.	.	.
4F/	-a	.	4A/	-a	.	4a\	-a	.	4cc\	-a	.
!LO:LB:g=original	!	!	!LO:LB:g=original	!	!	!LO:LB:g=original	!	!	!LO:LB:g=original	!	!
=21	=21	=21	=21	=21	=21	=21	=21	=21	=21	=21	=21
4.G\	Vir-	.	4.B\	Vir-	.	4.g\	Vir-	.	4.dd\	Vir-	.
8G\	-gi-	.	8B\	-gi-	.	8g\	-gi-	.	8dd\	-gi-	.
2G\	-nis:	.	2B\	-nis:	.	2g\	-nis:	.	2dd\	-nis:	.
=22	=22	=22	=22	=22	=22	=22	=22	=22	=22	=22	=22
4B\	De	.	4d\	De	.	4g\	De	.	4b\	De	.
4G\	cu-	.	4B\	cu-	.	4g\	cu-	.	4dd\	cu-	.
4d\	-jus	.	4f\	-jus	.	4g\	-jus	.	4b\	-jus	.
4B\	aſ-	.	4d\	aſ-	.	4f\	aſ-	.	4dd\	aſ-	.
=23	=23	=23	=23	=23	=23	=23	=23	=23	=23	=23	=23
4c\	-sum-	.	4e\	-sum-	.	4e\	-sum-	.	4g/	-sum-	.
4e\	-pti-	.	4c\	-pti-	.	4g\	-pti-	.	4g/	-pti-	.
4c\	-o-	.	4e\	-o-	.	4e\	-o-	.	4g/	-o-	.
4G\	-ne	.	4c\	-ne	.	4e\	-ne	.	4g/	-ne	.
=24	=24	=24	=24	=24	=24	=24	=24	=24	=24	=24	=24
2E\	gau-	.	2c\	gau-	.	2g\	gau-	.	2g/	gau-	.
2F\	-dent	.	2c\	-dent	.	2a\	-dent	.	2a/	-dent	.
=25	=25	=25	=25	=25	=25	=25	=25	=25	=25	=25	=25
2G\	An-	.	2B\	An-	.	2g\	An-	.	1dd\	An-	.
2A\	.	.	2c\	.	.	2f#X\	.	.	.	.	.
=26	=26	=26	=26	=26	=26	=26	=26	=26	=26	=26	=26
2G\	.	.	2B\	.	.	2g\	.	.	2.dd\	.	.
4F#X\	.	.	4d\	.	.	4a\	.	.	.	.	.
4D\	-ge-	.	4A\	-ge-	.	4f\	-ge-	.	4dd\	-ge-	.
!LO:LB:g=original	!	!	!	!	!	!LO:LB:g=original	!	!	!	!	!
=27	=27	=27	=27	=27	=27	=27	=27	=27	=27	=27	=27
2G\	-li	.	2B\	-li	.	2g\	-li	.	2dd\	-li	.
2G\	et	.	2B\	et	.	2g\	et	.	2dd\	et	.
!	!	!	!LO:LB:g=original	!	!	!	!	!	!	!	!
=28	=28	=28	=28	=28	=28	=28	=28	=28	=28	=28	=28
2A\	col	.	2c\	col	.	2f#X\	col	.	1dd\	col	.
2B\	.	.	2d\	.	.	2fn\	.	.	.	.	.
!	!	!	!	!	!	!	!	!	!LO:LB:g=original	!	!
=29	=29	=29	=29	=29	=29	=29	=29	=29	=29	=29	=29
4c\	lau-	.	2c\	lau-	.	2e\	lau-	.	2g/	lau-	.
4G\	.	.	.	.	.	.	.	.	.	.	.
2C/	-dant	.	2c\	-dant	.	2e\	-dant	.	2g/	-dant	.
=30	=30	=30	=30	=30	=30	=30	=30	=30	=30	=30	=30
4.BB/	fi-	.	4.d\	fi-	.	4.f\	fi-	.	4.g/	fi-	.
8BB/	-li-	.	8d\	-li-	.	8f\	-li-	.	8g/	-li-	.
2C/	-um	.	2c\	-um	.	2e\	-um	.	2g/	-um	.
=31	=31	=31	=31	=31	=31	=31	=31	=31	=31	=31	=31
8C\L	De-	.	2c\	De-	.	2e\	De-	.	1g\	De-	.
8D\	.	.	.	.	.	.	.	.	.	.	.
8E\	.	.	.	.	.	.	.	.	.	.	.
8F\J	.	.	.	.	.	.	.	.	.	.	.
2G\	.	.	2B\	.	.	2d\	.	.	.	.	.
=32	=32	=32	=32	=32	=32	=32	=32	=32	=32	=32	=32
2C/	-i	.	2c\	-i	.	2e\	-i,	.	2g/	-i,	.
2G\	et	.	2B\	et	.	2g\	et	.	2dd\	et	.
=33	=33	=33	=33	=33	=33	=33	=33	=33	=33	=33	=33
2A\	col	.	2c\	col	.	2f#X\	col	.	1dd\	col	.
2B\	.	.	2d\	.	.	2fn\	.	.	.	.	.
!LO:LB:g=original	!	!	!	!	!	!	!	!	!	!	!
=34	=34	=34	=34	=34	=34	=34	=34	=34	=34	=34	=34
4c\	lau-	.	2c\	lau-	.	2e\	lau-	.	2g/	lau-	.
4G\	.	.	.	.	.	.	.	.	.	.	.
2C/	-dant	.	2c\	-dant	.	2e\	-dant	.	2g/	-dant	.
!	!	!	!	!	!	!LO:LB:g=original	!	!	!	!	!
=35	=35	=35	=35	=35	=35	=35	=35	=35	=35	=35	=35
4.BB/	fi-	.	4.d\	fi-	.	4.f\	fi-	.	4.g/	fi-	.
8BB/	-li-	.	8d\	-li-	.	8f\	-li-	.	8g/	-li-	.
2C/	-um	.	2c\	-um	.	2e\	-um	.	2g/	-um	.
!	!	!	!LO:LB:g=original	!	!	!	!	!	!	!	!
=36	=36	=36	=36	=36	=36	=36	=36	=36	=36	=36	=36
8C\L	De-	.	2c\	De-	.	2e\	De-	.	1g\	De-	.
8D\	.	.	.	.	.	.	.	.	.	.	.
8E\	.	.	.	.	.	.	.	.	.	.	.
8F\J	.	.	.	.	.	.	.	.	.	.	.
4G\	.	.	2B\	.	.	2d\	.	.	.	.	.
4GG/	.	.	.	.	.	.	.	.	.	.	.
=37	=37	=37	=37	=37	=37	=37	=37	=37	=37	=37	=37
2C/	-i	.	1c\	-i	.	1e\	-i	.	1g\	-i	.
2r	.	.	.	.	.	.	.	.	.	.	.
!LO:LB:g=original	!	!	!LO:LB:g=original	!	!	!LO:LB:g=original	!	!	!LO:LB:g=original	!	!
=38||	=38||	=38||	=38||	=38||	=38||	=38||	=38||	=38||	=38||	=38||	=38||
*M3/2	*	*	*M3/2	*	*	*M3/2	*	*	*M3/2	*	*
2AA/	E-	.	1A\	E-	.	1e\	E-	.	1cc\	E-	.
2A\	.	.	.	.	.	.	.	.	.	.	.
2G#X\	-ruc-	.	2B\	-ruc-	.	2e\	-ruc-	.	2b\	-ruc-	.
=39	=39	=39	=39	=39	=39	=39	=39	=39	=39	=39	=39
2A\	-ta-	.	2A/	-ta-	.	1e\	-ta-	.	2cc\	-ta-	.
2E\	.	.	2G#X/	.	.	.	.	.	2b\	.	.
2C/	-vit	.	2A/	-vit	.	2e\	-vit	.	2a\	-vit	.
=40	=40	=40	=40	=40	=40	=40	=40	=40	=40	=40	=40
2AA/	cor	.	2A/	cor	.	2e\	cor	.	2cc\	cor	.
4AA/	me-	.	1A\	me-	.	1e\	me-	.	1cc\	me-	.
4BB/	.	.	.	.	.	.	.	.	.	.	.
4C/	.	.	.	.	.	.	.	.	.	.	.
4D/	.	.	.	.	.	.	.	.	.	.	.
=41	=41	=41	=41	=41	=41	=41	=41	=41	=41	=41	=41
2E\	um	.	2B\	um	.	2g#X\	um	.	2b\	um	.
2G#X\	ver-	.	2d\	ver-	.	2e\	ver-	.	2b\	ver-	.
2E\	-bum	.	2B\	-bum	.	2e\	-bum	.	2g#X/	-bum	.
=42	=42	=42	=42	=42	=42	=42	=42	=42	=42	=42	=42
4A\	bo-	.	1c\	bo-	.	1e\	bo-	.	1a\	bo-	.
4E\	.	.	.	.	.	.	.	.	.	.	.
4C\	.	.	.	.	.	.	.	.	.	.	.
4E\	.	.	.	.	.	.	.	.	.	.	.
2AA/	-num	.	2c\	-num	.	2e\	-num	.	2a\	-num	.
!LO:LB:g=original	!	!	!	!	!	!	!	!	!	!	!
=43	=43	=43	=43	=43	=43	=43	=43	=43	=43	=43	=43
2C/	di-	.	1G/	di-	.	2e\	di-	.	1cc\	di-	.
4C/	.	.	.	.	.	4e\	.	.	.	.	.
4D/	.	.	.	.	.	4f\	.	.	.	.	.
4E/	.	.	2G/	co	.	4g\	.	.	2cc\	co	.
4F/	-co	.	.	.	.	4a\	co	.	.	.	.
=44	=44	=44	=44	=44	=44	=44	=44	=44	=44	=44	=44
2G\	e-	.	2B\	e-	.	2d\	e-	.	2b\	e-	.
2GG/	-go	.	2B\	-go	.	2d\	-go	.	2g\	-go	.
2r	.	.	2r	.	.	2r	.	.	2r	.	.
!	!	!	!LO:LB:g=original	!	!	!LO:LB:g=original	!	!	!LO:LB:g=original	!	!
=45	=45	=45	=45	=45	=45	=45	=45	=45	=45	=45	=45
2.G\	di-	.	2.B\	di-	.	1f\	di-	.	1dd\	di-	.
4A\	.	.	4c\	.	.	.	.	.	.	.	.
4B\	.	.	4d\	.	.	2f\	-co	.	2dd\	-co	.
4G\	-co	.	4B\	-co	.	.	.	.	.	.	.
=46	=46	=46	=46	=46	=46	=46	=46	=46	=46	=46	=46
2c\	e-	.	2c\	e-	.	1g\	e-	.	1ee\	e-	.
4G\	.	.	2B\	.	.	.	.	.	.	.	.
4E\	.	.	.	.	.	.	.	.	.	.	.
2C/	-go	.	2c\	-go	.	2e\	-go	.	2cc\	-go	.
=47	=47	=47	=47	=47	=47	=47	=47	=47	=47	=47	=47
2.BB/	o-	.	2.G#/	o-	.	2.e\	o-	.	2.dd\	o-	.
4BB/	-pe-	.	4G#/	-pe-	.	4e\	-pe-	.	4dd\	-pe-	.
2AA/	-ra	.	2A/	-ra	.	2e\	-ra	.	2cc\	-ra	.
!LO:LB:g=original	!	!	!	!	!	!	!	!	!	!	!
=48	=48	=48	=48	=48	=48	=48	=48	=48	=48	=48	=48
1F\	me-	.	1G/	me-	.	1d\	me-	.	1b\	me-	.
2E\	-a	.	2A/	-a	.	2e\	-a	.	2cc\	-a	.
=49	=49	=49	=49	=49	=49	=49	=49	=49	=49	=49	=49
2D\	Re-	.	2B\	Re-	.	2f\	Re-	.	2dd\	Re-	.
1E\	.	.	2A\	.	.	1e\	.	.	2cc\	.	.
.	.	.	2G#X/	.	.	.	.	.	2b\	.	.
=50	=50	=50	=50	=50	=50	=50	=50	=50	=50	=50	=50
1.AA/	-gi	.	1.A\	-gi	.	1e\	-gi	.	1.cc\	-gi	.
.	.	.	.	.	.	2r	.	.	.	.	.
!LO:LB:g=original	!	!	!LO:LB:g=original	!	!	!LO:LB:g=original	!	!	!LO:LB:g=original	!	!
=51||	=51||	=51||	=51||	=51||	=51||	=51||	=51||	=51||	=51||	=51||	=51||
*M2/2	*	*	*M2/2	*	*	*M2/2	*	*	*M2/2	*	*
*met(c|)	*	*	*met(c|)	*	*	*met(c|)	*	*	*met(c|)	*	*
2C/	Glo-	.	2G/	Glo-	.	4e\	Glo-	.	4cc\	Glo-	.
.	.	.	.	.	.	4d\	.	.	4b\	.	.
4E\	-ri-	.	4G/	-ri-	.	4e\	-ri-	.	4cc\	-ri-	.
4F\	-a	.	4G/	-a	.	4f\	-a	.	4dd\	-a	.
=52	=52	=52	=52	=52	=52	=52	=52	=52	=52	=52	=52
2G\	Pa-	.	2G/	Pa-	.	2e\	Pa-	.	2cc\	Pa-	.
2G\	-tri	.	2G/	-tri	.	2d\	-tri	.	2b\	-tri	.
=53	=53	=53	=53	=53	=53	=53	=53	=53	=53	=53	=53
2G\	glo-	.	4B\	glo-	.	4f\	glo-	.	4dd\	glo-	.
.	.	.	4c\	.	.	4e\	.	.	4cc\	.	.
4B\	-ri-	.	4B\	-ri-	.	4f\	-ri-	.	4dd\	-ri-	.
4G\	-a	.	4G\	-a	.	4g\	-a	.	4ee\	-a	.
=54	=54	=54	=54	=54	=54	=54	=54	=54	=54	=54	=54
4c\	fi-	.	4.G/	fi-	.	4.f\	fi-	.	4.dd\	fi-	.
8G\	.	.	.	.	.	.	.	.	.	.	.
8E\	-li-	.	8G/	-li-	.	8f\	-li-	.	8dd\	-li-	.
2C/	-o	.	2G/	-o	.	2e\	-o	.	2cc\	-o	.
=55	=55	=55	=55	=55	=55	=55	=55	=55	=55	=55	=55
2c\	et	.	2G/	et	.	2e\	et	.	2cc\	et	.
2A\	Spi-	.	2A/	Spi-	.	2f#X\	Spi-	.	2cc\	Spi-	.
=56	=56	=56	=56	=56	=56	=56	=56	=56	=56	=56	=56
2G\	-ri-	.	2d\	-ri-	.	2g\	-ri-	.	2b\	-ri-	.
4F#X\	-tu-	.	4d\	-tu-	.	4a\	-tu-	.	4cc\	-tu-	.
4G\	-i	.	4d\	-i	.	4g\	-i	.	4b\	-i	.
!	!	!	!	!	!	!LO:PB:g=original	!	!	!LO:LB:g=original	!	!
=57	=57	=57	=57	=57	=57	=57	=57	=57	=57	=57	=57
1D\	San-	.	1d\	San-	.	1f#X\	San-	.	1a\	San-	.
!	!	!	!LO:PB:g=original	!	!	!	!	!	!	!	!
=58	=58	=58	=58	=58	=58	=58	=58	=58	=58	=58	=58
2G\	-cto	.	2d\	-cto	.	2g\	-cto	.	2b\	-cto	.
2r	.	.	2r	.	.	2r	.	.	2r	.	.
!LO:PB:g=original	!	!	!	!	!	!	!	!	!	!	!
=59	=59	=59	=59	=59	=59	=59	=59	=59	=59	=59	=59
4G\	Si-	.	4d\	Si-	.	2.g\	Si-	.	4b\	Si-	.
4A\	.	.	4c\	.	.	.	.	.	4cc\	.	.
4B\	.	.	4B\	.	.	.	.	.	4dd\	.	.
4G\	-cut	.	4d\	-cut	.	4g\	-cut	.	4b\	-cut	.
=60	=60	=60	=60	=60	=60	=60	=60	=60	=60	=60	=60
4c\	e-	.	2c\	e-	.	2.g\	e-	.	2ee\	e-	.
4G\	.	.	.	.	.	.	.	.	.	.	.
4E\	.	.	2G/	rat	.	.	.	.	4cc\	.	.
4D\	-rat	.	.	.	.	4fn\	rat	.	4b\	rat	.
=61	=61	=61	=61	=61	=61	=61	=61	=61	=61	=61	=61
4C\	in	.	4G/	in	.	4e\	in	.	4cc\	in	.
4D\	prin-	.	4G/	prin-	.	4f\	prin-	.	4b\	prin-	.
4E\	-ci-	.	4G/	-ci-	.	4e\	-ci-	.	4cc\	-ci-	.
4F\	-pi-	.	4A/	-pi-	.	4d\	-pi-	.	4dd\	-pi-	.
=62	=62	=62	=62	=62	=62	=62	=62	=62	=62	=62	=62
2G\	-o	.	2G/	-o	.	2d\	-o	.	2b\	-o	.
4r	.	.	4r	.	.	4r	.	.	4r	.	.
4G\	et	.	4G/	et	.	4d\	et	.	4b\	et	.
=63	=63	=63	=63	=63	=63	=63	=63	=63	=63	=63	=63
2F#X\	nunc	.	2A/	nunc	.	2e-X\	nunc	.	2cc\	nunc	.
2F#\	et	.	2A/	et	.	2e-\	et	.	2cc\	et	.
!	!	!	!	!	!	!	!	!	!LO:PB:g=original	!	!
=64	=64	=64	=64	=64	=64	=64	=64	=64	=64	=64	=64
4G\	sem-	.	4G/	sem-	.	4d\	sem-	.	4b\	sem-	.
4G\	-per	.	4G/	-per	.	4d\	-per	.	4b\	-per	.
2r	.	.	2r	.	.	2r	.	.	2r	.	.
!LO:LB:g=original	!	!	!LO:LB:g=original	!	!	!LO:LB:g=original	!	!	!	!	!
=65	=65	=65	=65	=65	=65	=65	=65	=65	=65	=65	=65
4d\	et	.	4B\	et	.	2g\	et	.	2ff\	et	.
4c\	.	.	4c\	.	.	.	.	.	.	.	.
4B\	in	.	4d\	in	.	2g\	in	.	2dd\	in	.
4G\	.	.	4B\	.	.	.	.	.	.	.	.
=66	=66	=66	=66	=66	=66	=66	=66	=66	=66	=66	=66
4c\	sae-	.	4c\	sae-	.	4g\	sae-	.	4ee\	sae-	.
4G\	-cu-	.	4B\	-cu-	.	4f\	-cu-	.	4dd\	-cu-	.
4E\	-la	.	2c\	-la	.	2e\	-la	.	2cc\	-la	.
4C\	.	.	.	.	.	.	.	.	.	.	.
=67	=67	=67	=67	=67	=67	=67	=67	=67	=67	=67	=67
2BB/	sae-	.	2G/	sae-	.	2d\	sae-	.	2ff\	sae-	.
2C/	-cu-	.	2G/	-cu-	.	2e\	-cu-	.	2ee\	-cu-	.
=68	=68	=68	=68	=68	=68	=68	=68	=68	=68	=68	=68
2F\	-lo-	.	2A/	-lo-	.	2d\	-lo-	.	2dd\	-lo-	.
4E\	.	.	4G/	.	.	4g\	.	.	4cc\	.	.
4F\	-rum	.	4A/	-rum	.	4f\	-rum	.	4dd\	-rum	.
=69	=69	=69	=69	=69	=69	=69	=69	=69	=69	=69	=69
2G\	a-	.	1G/	a-	.	2e\	a-	.	2cc\	a-	.
2GG/	.	.	.	.	.	2d\	.	.	2b\	.	.
=70	=70	=70	=70	=70	=70	=70	=70	=70	=70	=70	=70
2C/	-men	.	1G/	-men	.	2e\	-men	.	1cc\	-men	.
2r	.	.	.	.	.	2r	.	.	.	.	.
==	==	==	==	==	==	==	==	==	==	==	==
*-	*-	*-	*-	*-	*-	*-	*-	*-	*-	*-	*-
!!!system-decoration: [(s1,s2,s3,s4)]
!!!EED: Leszek Kubiak
!!!EST: 2021-02-26
!!!ENC: Tomasz Grochalski
!!!END: 2021-02-18
